X:1
T:Irby, 87.87.87
T:Irby, 87.87.87
T:Henry John Gauntlett, 1849
T:Public Domain Courtesy of the Cyber Hymnal™
C:Henry John Gauntlett, 1849
Z:Public Domain
Z:Courtesy of the Cyber Hymnal™
%%score ( 1 2 ) ( 3 4 )
L:1/8
Q:1/4=105
M:none
K:G
V:1 treble 
V:2 treble 
V:3 bass 
V:4 bass 
V:1
 D2 [CF]2 | [DG]3 [DG] (GF) ([DG][FA]) | [FA]2 G2 [DG]2 [GB]2 | [Gd]3 [GB] (BA) (GF) | %4
 [DG]4 D2 [CF]2 | [DG]3 [DG] (GF) GA | A2 [B,G]2 [DG]2 [GB]2 | [Gd]3 [GB] (BA) (GF) | %8
 [DG]4 [Ge]2 [Ge]2 | d3 G [Gc]2 [Fc]2 | [GB]4 e2 e2 | d3 [DB] (BA) (GF) | [DG]4 |] %13
V:2
 D2 x2 | x4 D2 x2 | x2 G2 x4 | x4 E2 D2 | x4 D2 x2 | x4 ^C2 C2 | (DC) x6 | x4 E2 D2 | x8 | %9
 (GFG)G x4 | x4 (EF) (GA) | (DFG) E2 D2 x | x4 |] %13
V:3
 [G,,B,]2 [A,,A,]2 | [B,,G,]3 [G,,B,] (B,A,) (B,C) | [D,C]2 [G,B,]2 [G,B,]2 [E,G,]2 | %3
 [B,,G,]3 [G,,D] (DC) (B,A,) | [G,,G,B,]4 [G,,B,]2 [A,,A,]2 | [B,,G,]3 [G,,B,] [E,G,]2 [A,,G,]2 | %6
 [D,F,]2 G,2 [G,B,]2 [E,G,]2 | [B,,G,]3 [G,,D] (DC) (B,A,) | [G,,G,B,]4 C2 C2 | %9
 ([G,B,][A,C][B,D])[G,B,] [D,A,]2 [D,D]2 | [G,D]4 C2 C2 | (CA,B,)[G,D] (DC) (B,A,) | [G,,B,]4 |] %13
V:4
 x4 | x4 D,2 D,2 | x8 | x4 C,2 D,2 | x8 | x8 | x2 G,2 x4 | x4 C,2 D,2 | x4 (C,D,) E,F, | x8 | %10
 x4 (C,D,) (E,F,) | G,3 C,2 D,2 x | x4 |] %13

